assets/icons/edit-clear-filled.svg

<?xml version="1.0" encoding="UTF-8" standalone="no"?>
<svg
   viewBox="0 0 24 24"
   height="24"
   width="24"
   version="1.1"
   id="svg4"
   sodipodi:docname="edit-clear-filled.svg"
   inkscape:version="1.2 (1:1.2.1+202207142221+cd75a1ee6d)"
   xmlns:inkscape="http://www.inkscape.org/namespaces/inkscape"
   xmlns:sodipodi="http://sodipodi.sourceforge.net/DTD/sodipodi-0.dtd"
   xmlns="http://www.w3.org/2000/svg"
   xmlns:svg="http://www.w3.org/2000/svg">
  <defs
     id="defs8" />
  <sodipodi:namedview
     id="namedview6"
     pagecolor="#ffffff"
     bordercolor="#666666"
     borderopacity="1.0"
     inkscape:pageshadow="2"
     inkscape:pageopacity="0.0"
     inkscape:pagecheckerboard="0"
     showgrid="true"
     inkscape:zoom="28"
     inkscape:cx="13.035714"
     inkscape:cy="12.035714"
     inkscape:window-width="1920"
     inkscape:window-height="1043"
     inkscape:window-x="0"
     inkscape:window-y="0"
     inkscape:window-maximized="1"
     inkscape:current-layer="svg4"
     inkscape:showpageshadow="2"
     inkscape:deskcolor="#d1d1d1">
    <inkscape:grid
       type="xygrid"
       id="grid825" />
  </sodipodi:namedview>
  <path
     id="path844"
     style="fill:#808080;fill-rule:evenodd;stroke-width:0.5;stroke-linecap:round;fill-opacity:1"
     d="M 12 3 A 9 9 0 0 0 3 12 A 9 9 0 0 0 12 21 A 9 9 0 0 0 21 12 A 9 9 0 0 0 12 3 z M 9.3535156 8.6464844 L 12 11.292969 L 14.646484 8.6464844 L 15.353516 9.3535156 L 12.707031 12 L 15.353516 14.646484 L 14.646484 15.353516 L 12 12.707031 L 9.3535156 15.353516 L 8.6464844 14.646484 L 11.292969 12 L 8.6464844 9.3535156 L 9.3535156 8.6464844 z " />
</svg>

<svg height="24" width="24" xmlns="http://www.w3.org/2000/svg"><path style="fill:gray;stroke-width:.5;stroke-linecap:round;fill-opacity:1" d="M12 3a9 9 0 0 0-9 9 9 9 0 0 0 9 9 9 9 0 0 0 9-9 9 9 0 0 0-9-9zM9.354 8.646 12 11.293l2.646-2.647.708.708L12.707 12l2.647 2.646-.708.708L12 12.707l-2.646 2.647-.708-.708L11.293 12 8.646 9.354l.708-.708z"/></svg>
